X:1
$SmallLMargin
$SmallRMargin
T:Devil in the Strawstack                           % title
M:C|                           % meter
L:1/8                        % length of shortest note
K:Gm                           % key
"Gm"GFDF GFDF|GFDF "F"C4|"Gm"GFDF G2 (d2|["1,3""Dm"d)cAc dcAc:|["2,4"d)c A2 G4||
|:"Gm"d2 g2 g4|gagf d4|"F"fAgA fAgf|["1,3"dcAc "Dm"d4:|["2,4""Dm"dc A2 "Gm"G4|]

$NormLMargin
$NormRMargin
